X: 1
T: the Sow's Tail
C:
R: strathspey
S: Fiddle Hell Online 2021-4-16
Z: 2021 John Chambers <jc:trillian.mit.edu>
M: C
L: 1/16
K: D
"^x"F | A3B{AB}A3F EF3G4 | AB3{AB}A3F A3Bd3e | fd3A3F E3FG3A | Bd3AF3 E4 D3 :|
|: f | a3b{ab}a3f ef3{gf}~g4 | ab3{ab}a3f d3fa3f | {a}g3efd3 e3f{a}g3e | ab3ag3 {fg}f4 e3 :|
P: x Alternate first bar for repeats:
f | dB3AF3 E3F G4 |
